**kern
*staff3
*tb8
=1-
*clefF4
*k[b-e-a-]
*met(c)
*M4/4
2.EE-/ 2.E-/
.
.
.
.
.
4DD-/ 4D-/
.
=2
2.CC/ 2.C/
.
.
.
.
.
4DDn/ 4Dn/
.
=3
4EE-/ 4E-/
.
4DD/ 4D/
.
2CC/ 2C/
.
.
.
=4
!!linebreak:original
2CC/ 2C/
.
.
.
2r
.
.
.
=5
2DD/ 2D/
.
.
.
2CC/ 2C/
.
.
.
=6
1BBB-/ 1BB-/
.
.
.
.
.
.
.
=7
!!linebreak:original
2EE-/ 2E-/
.
.
.
2DD/ 2D/
.
.
.
=8
1CC/ 1C/
.
.
.
.
.
.
.
=9
2CC#/ 2C#/
.
.
.
2EEn/ 2En/
.
.
.
=10
!!linebreak:original
1D/
.
.
.
.
.
.
.
=11
2GG/ 2G/
.
.
.
2FF/ 2F/
.
.
.
=12
1EE-/ 1E-/
.
.
.
.
.
.
.
=13
!!linebreak:original
2AA-\ 2A-\
.
.
.
2GG/ 2G/
.
.
.
=14
4FF/ 4F/
.
4EE-/ 4E-/
.
4DD/ 4D/
.
4CC/ 4C/
.
=15
4BBB-/ 4BB-/
.
4BBB-/ 4BB-/
.
4CC/ 4C/
.
4DD/ 4D/
.
=16
!!linebreak:original
2EE-/ 2E-/
.
.
.
2EE-/ 2E-/
.
.
.
=17
2EE-/ 2E-/
.
.
.
2DD/ 2D/
.
.
.
=18
4EE-/ 4E-/
.
4EE-/ 4E-/
.
4FF/ 4F/
.
4BBB-/ 4BB-/
.
=19
2EE-/ 2E-/
.
.
.
2DD-/ 2D-/
.
.
.
=20
!!linebreak:original
2CC-/ 2C-/
.
.
.
2BBB-/ 2BB-/
.
.
.
=21
2AAAn/ 2AAn/
.
.
.
2FFF/ 2FF/
.
.
.
=22
4BBB-/ 4BB-/
.
4AA-\ 4A-\
.
4GG/ 4G/
.
4FF/ 4F/
.
=23
!!linebreak:original
4EE-/ 4E-/
.
4BBn/
.
4C/
.
4GG/
.
=24
4AA-/
.
4EEn/
.
4FF/
.
4GG/
.
=25
2AA-/
.
.
.
2r
.
.
.
=26
*^
8B-/L	1BBB-/ 1BB-/
8c/J	.
8An/J	.
8F#/J	.
4G/ 4B-/	.
.	.
4r	.
.	.
*v	*v
=27
!!linebreak:original
2.EE-/ 2.E-/
.
.
.
.
.
4DD-/ 4D-/
.
=28
2.CC/ 2.C/
.
.
.
.
.
4DDn/ 4Dn/
.
=29
4EE-/ 4E-/
.
4DD/ 4D/
.
2CC/ 2C/
.
.
.
=30
!!linebreak:original
2CC/ 2C/
.
.
.
2r
.
.
.
=31
2DD/ 2D/
.
.
.
2CC/ 2C/
.
.
.
=32
1BBB-/ 1BB-/
.
.
.
.
.
.
.
=33
!!linebreak:original
2EE-/ 2E-/
.
.
.
2DD/ 2D/
.
.
.
=34
1CC/ 1C/
.
.
.
.
.
.
.
=35
2CC#/ 2C#/
.
.
.
2EEn/ 2En/
.
.
.
=36
!!linebreak:original
1DD/ 1D/
.
.
.
.
.
.
.
=37
2GG/ 2G/
.
.
.
2FF/ 2F/
.
.
.
=38
1EE-/ 1E-/
.
.
.
.
.
.
.
=39
!!linebreak:original
2AA-\ 2A-\
.
.
.
2GG/ 2G/
.
.
.
=40
4FF/ 4F/
.
4EE-/ 4E-/
.
4DD/ 4D/
.
4CC/ 4C/
.
=41
4BBB-/ 4BB-/
.
4BBB-/ 4BB-/
.
4CC/ 4C/
.
4DD/ 4D/
.
=42
!!linebreak:original
2EE-/ 2E-/
.
.
.
2EE-/ 2E-/
.
.
.
=43
2EE-/ 2E-/
.
.
.
2DD/ 2D/
.
.
.
=44
4EE-/ 4E-/
.
4EE-/ 4E-/
.
4FF/ 4F/
.
4BBB-/ 4BB-/
.
=45
2EE-/ 2E-/
.
.
.
2DD-/ 2D-/
.
.
.
=46
!!linebreak:original
2CC-/ 2C-/
.
.
.
2BBB-/ 2BB-/
.
.
.
=47
2AAAn/ 2AAn/
.
.
.
2FFF/ 2FF/
.
.
.
=48
4BBB-/ 4BB-/
.
4AA-\ 4A-\
.
4GG/ 4G/
.
4FF/ 4F/
.
=49
!!linebreak:original
4EE-/ 4E-/
.
4BBn/
.
4C/
.
4GG/
.
=50
4AA-/
.
4EEn/
.
4FF/
.
4GG/
.
=51
2AA-/
.
.
.
2r
.
.
.
=52
*^
8B-/L	1BBB-/ 1BB-/
8c/J	.
8An/J	.
8F#/J	.
4G/ 4B-/	.
.	.
4r	.
.	.
*v	*v
=53
2EE-/ 2E-/
.
.
.
2r
.
.
.
==
*-
